X:1
T:New Britain, CM
T:New Britain, CM
T:Virginia Harmony, 1831
T:Public Domain Courtesy of the Cyber Hymnal™
C:Virginia Harmony, 1831
Z:Public Domain
Z:Courtesy of the Cyber Hymnal™
%%score ( 1 2 ) ( 3 4 )
L:1/8
Q:1/4=100
M:3/4
K:F
V:1 treble 
V:2 treble 
V:3 bass 
V:4 bass 
V:1
 [A,C]2 | [A,F]4 (AF) | [CA]4 [B,G]2 | [A,F]4 [B,D]2 | [A,C]4 [A,C]2 | [A,F]4 (AF) | [CA]4 [CG]2 | %7
 [Cc]6 [CA]2 | (c3 A) (cA) | [CF]4 C2 | ([B,D]3 [CF]) (FD) | [A,C]4 C2 | [A,F]4 (AF) | %13
 [CA]4 [B,G]2 | [A,F]4 |] %15
V:2
 x2 | x4 C2 | x6 | x6 | x6 | x4 A,2 | x6 | x8 | C4 x2 | x6 | x4 B,2 | x6 | x4 C2 | x6 | x4 |] %15
V:3
 [F,,F,]2 | [F,,C,]4 F,2 | [C,F,]4 [C,E,]2 | [D,F,]4 [B,,F,]2 | [F,,F,]4 [F,,F,]2 | [F,,C,]4 F,2 | %6
 [C,F,]4 [B,,E,]2 | [A,,F,]6 [F,,F,]2 | (A,3 F,) (A,F,) | [A,,F,]4 [A,,F,]2 | F,4 (D,F,) | %11
 [F,,F,]4 [A,,F,]2 | [D,F,]4 (F,A,) | [C,F,]4 [C,E,]2 | [F,,F,]4 |] %15
V:4
 x2 | x4 (F,,A,,) | x6 | x6 | x6 | x4 (F,,A,,) | x6 | x8 | F,4 F,2 | x6 | (B,,3 A,,) B,,2 | x6 | %12
 x4 C,2 | x6 | x4 |] %15

